svgs/sharp-light/boxes-packing.svg

<svg xmlns="http://www.w3.org/2000/svg" viewBox="0 0 640 512"><!--! Font Awesome Pro 6.4.2 by @fontawesome - https://fontawesome.com License - https://fontawesome.com/license (Commercial License) Copyright 2023 Fonticons, Inc. --><path d="M608 32H288v96H256V32 0h32H608h32V32 480v32H608 384V480H608V32zM491.3 252.7l64 64-22.6 22.6L496 302.6V432v16H464V432 302.6l-36.7 36.7-22.6-22.6 64-64L480 241.4l11.3 11.3zM352 192H32v64H64 320h32V192zM0 288V256 192 160H32 352h32v32 64 32H352V480v32H320 64 32V480 288H0zM64 480H320V288H64V480zM256 320v32H128V320H256z"/></svg>

<svg xmlns="http://www.w3.org/2000/svg" viewBox="0 0 640 512"><!--! Font Awesome Pro 6.6.0 by @fontawesome - https://fontawesome.com License - https://fontawesome.com/license (Commercial License) Copyright 2024 Fonticons, Inc. --><path d="M608 32L288 32l0 96-32 0 0-96 0-32 32 0L608 0l32 0 0 32 0 448 0 32-32 0-224 0 0-32 224 0 0-448zM491.3 252.7l64 64-22.6 22.6L496 302.6 496 432l0 16-32 0 0-16 0-129.4-36.7 36.7-22.6-22.6 64-64L480 241.4l11.3 11.3zM352 192L32 192l0 64 32 0 256 0 32 0 0-64zM0 288l0-32 0-64 0-32 32 0 320 0 32 0 0 32 0 64 0 32-32 0 0 192 0 32-32 0L64 512l-32 0 0-32 0-192L0 288zM64 480l256 0 0-192L64 288l0 192zM256 320l0 32-128 0 0-32 128 0z"/></svg>
